X: 38
T:The Drunken Piper
M:4/4
L:1/8
Q:224
S:AAB
R:Reel
K:ADor
|: e2 |AAAB e2ef |edBd e2g2 |GGGB d2de |dBGB d2e2 |!
AAAB e2ef |edBd e2a2|g2e2 efed |B2A2 A2 :| !
e2 |a2ag e2a2 |edef g2a2  |GGGB d2de |dBGB d2e2 |!
a2ag e2a2  |edef g2a2|g2e2 efed |B2A2 A2 || !
e2 |a2ag e2a2 |edef g2a2  |GGGB d2de |dBGB d2e2 |!
AAAB e2ef |edBd e2a2|g2e2 efed |B2A2 A2 |]
